X: 30
T: Se je mue / Adieu pour m\'esouen
N: Derived from Ano3036-Se_je_mue__Adieu_pour_mesouen--Dijon_Chansonnier.krn
C: Anonymous
%%abc-version 2.0
%%abcx-abcm2ps-target-version 5.9.1 (29 Sep 2008)
%%abc-creator hum2abc beta
%%abcx-conversion-date 2019/02/16 20:18:27
%%abc-edited-by Jesse Rodin
%%abc-edited-by Chris Gage 03-06-2015
%%abcx-initial-encoding-date 2015/03/13/
%%humdrum-veritas 2702431271
%%humdrum-veritas-data 2423886223
%%linebreak <none>
%%barnumbers 0
L: 1/4
M: 2/1
Q: 1/2=120
%%staves [1 2 3 4]
V: 1 clef=treble
V: 2 clef=treble-8
V: 3 clef=bass
V: 4 clef=bass
K: F
[V:1] G8 | 
[V:2] G8 | 
[V:3] z8 | 
[V:4] z8 | 
[V:1] G4G4 | 
[V:2] E8 | 
[V:3] z8 | 
[V:4] z8 | 
[V:1] F8 | 
[V:2] D8 | 
[V:3] z8 | 
[V:4] z8 | 
[V:1] G8 | 
[V:2] d8- | 
[V:3] z8 | 
[V:4] G,8 | 
[V:1] B8 | 
[V:2] d4e4 | 
[V:3] z8 | 
[V:4] G,4G,4 | 
[V:1] A4F4- | 
[V:2] f2e2d2c2 | 
[V:3] z8 | 
[V:4] F,8 | 
[V:1] F2D2E4 | 
[V:2] B8 | 
[V:3] z8 | 
[V:4] G,8 | 
[V:1] F4D4 | 
[V:2] c4A4- | 
[V:3] z8 | 
[V:4] A,4F,4 | 
[V:1] =B,4^C4 | 
[V:2] A4G4 | 
[V:3] z8 | 
[V:4] E,8 | 
[V:1] D8- | 
[V:2] A4B4 | 
[V:3] z4D,4 | 
[V:4] D,4z4 | 
[V:1] D8 | 
[V:2] A4d4- | 
[V:3] D,4z4 | 
[V:4] z4D,4 | 
[V:1] z8 | 
[V:2] d4B4 | 
[V:3] z4G,4 | 
[V:4] D,4z4 | 
[V:1] d8 | 
[V:2] G8- | 
[V:3] B,4B,4 | 
[V:4] z8 | 
[V:1] d4B4- | 
[V:2] G8- | 
[V:3] B,4B,4 | 
[V:4] z8 | 
[V:1] B4G4 | 
[V:2] G8 | 
[V:3] B,4B,4 | 
[V:4] z8 | 
[V:1] A4F4- | 
[V:2] D8 | 
[V:3] A,4A,4 | 
[V:4] z8 | 
[V:1] F2G2A4- | 
[V:2] D4D4- | 
[V:3] A,6G,2 | 
[V:4] z8 | 
[V:1] A4G4- | 
[V:2] D4d4- | 
[V:3] F,4G,4 | 
[V:4] z8 | 
[V:1] G2E2^F4 | 
[V:2] d4c4 | 
[V:3] A,4A,4 | 
[V:4] z8 | 
[V:1] z4G4 | 
[V:2] d8- | 
[V:3] G,4z4 | 
[V:4] z4G,4 | 
[V:1] G6F2 | 
[V:2] d8 | 
[V:3] z8 | 
[V:4] B,4B,4 | 
[V:1] D8 | 
[V:2] B4G4- | 
[V:3] z8 | 
[V:4] B,4B,4 | 
[V:1] D4D2E2 | 
[V:2] G4F4 | 
[V:3] z8 | 
[V:4] B,4B,4 | 
[V:1] F2G2A2B2 | 
[V:2] D8 | 
[V:3] z8 | 
[V:4] A,4A,4 | 
[V:1] c4B2A2- | 
[V:2] z4F4 | 
[V:3] z8 | 
[V:4] A,6G,2 | 
[V:1] A2G2G4- | 
[V:2] D4E4 | 
[V:3] z8 | 
[V:4] F,4G,4 | 
[V:1] G4^F4 | 
[V:2] D8 | 
[V:3] z8 | 
[V:4] A,4A,2A,2 | 
[V:1] G8 | 
[V:2] z4d4- | 
[V:3] z4G,4 | 
[V:4] G,8 | 
[V:1] z4B4 | 
[V:2] d4e4 | 
[V:3] G,4G,4 | 
[V:4] z8 | 
[V:1] A4B4 | 
[V:2] f4d2e2- | 
[V:3] F,4G,4 | 
[V:4] z8 | 
[V:1] c4A4- | 
[V:2] e2f2d4- | 
[V:3] A,4F,4 | 
[V:4] z8 | 
[V:1] A2B2G4 | 
[V:2] d2c2c2B2 | 
[V:3] E,8 | 
[V:4] z8 | 
[V:1] F4D4 | 
[V:2] d8 | 
[V:3] D,4z4 | 
[V:4] z4G,4 | 
[V:1] z4G4 | 
[V:2] B8 | 
[V:3] z8 | 
[V:4] G,4G,4 | 
[V:1] A4G2E2- | 
[V:2] A4B4 | 
[V:3] z8 | 
[V:4] F,4G,4 | 
[V:1] E2D2D4- | 
[V:2] c4A4 | 
[V:3] z8 | 
[V:4] A,4F,4 | 
[V:1] D4^C4 | 
[V:2] G6F2 | 
[V:3] z8 | 
[V:4] E,8 | 
[V:1] D8 | 
[V:2] A4B4 | 
[V:3] z4G,4 | 
[V:4] D,4z4 | 
[V:1] z4D4 | 
[V:2] G4z2g2- | 
[V:3] B,4z4 | 
[V:4] z4G,4 | 
[V:1] D4F4 | 
[V:2] g2f2d4 | 
[V:3] z4B,4 | 
[V:4] B,4z4 | 
[V:1] G4B4 | 
[V:2] B4d4- | 
[V:3] B,4B,4 | 
[V:4] z4G,4 | 
[V:1] B4A4- | 
[V:2] d2e2f4- | 
[V:3] B,4C4 | 
[V:4] G,4F,4 | 
[V:1] A2G2G4 | 
[V:2] f4e2d2 | 
[V:3] D4B,4 | 
[V:4] D,4G,4 | 
[V:1] ^F6E2 | 
[V:2] d8 | 
[V:3] A,8 | 
[V:4] D,8 | 
[V:1] G8 |]  
[V:2] d8 |]  
[V:3] G,8 |]  
[V:4] [B,8D8] |]  



% FRACTION = 0.498536BUT SHOULD BE 0
